kora/actions/scalable/draw-geometry-line-parallel.svg

<svg xmlns="http://www.w3.org/2000/svg" width="16" height="16" version="1.1">
 <defs>
  <style id="current-color-scheme" type="text/css">
   .ColorScheme-Text { color:#dfdfdf; } .ColorScheme-Highlight { color:#4285f4; }
  </style>
 </defs>
 <path style="fill:currentColor" class="ColorScheme-Text" d="M 6.7734,1 C 6.1621,1 5.7995,1.608 6.1172,2.1582 L 12.605,12.637 C 13.11,13.51 14.393,12.633 13.881,11.848 L 7.3926,1.3691 C 7.2618,1.1499 7.0289,1 6.7734,1 Z M 2.7734,3 C 2.1621,3 1.7995,3.608 2.1172,4.1582 L 8.6055,14.637 C 9.1098,15.51 10.393,14.633 9.8809,13.848 L 3.3926,3.3691 C 3.2618,3.1499 3.0289,3 2.7734,3 Z"/>
</svg>

<svg xmlns="http://www.w3.org/2000/svg" style="fill-rule:evenodd;clip-rule:evenodd;stroke-linejoin:round;stroke-miterlimit:2" width="100%" height="100%" version="1.1" viewBox="0 0 16 16" xml:space="preserve">
 <defs>
  <style id="current-color-scheme" type="text/css">
   .ColorScheme-Text { color:#dfdfdf; } .ColorScheme-Highlight { color:#4285f4; } .ColorScheme-NeutralText { color:#ff9800; } .ColorScheme-PositiveText { color:#4caf50; } .ColorScheme-NegativeText { color:#f44336; }
  </style>
 </defs>
 <path style="fill:currentColor;" class="ColorScheme-Text" d="M6.773,1c-0.611,0 -0.974,0.608 -0.656,1.158l6.488,10.479c0.505,0.873 1.788,-0.004 1.276,-0.789l-6.488,-10.479c-0.131,-0.219 -0.364,-0.369 -0.62,-0.369Zm-4,2c-0.611,0 -0.973,0.608 -0.656,1.158l6.489,10.479c0.504,0.873 1.787,-0.004 1.275,-0.789l-6.488,-10.479c-0.131,-0.219 -0.364,-0.369 -0.62,-0.369Z"/>
</svg>
